!!!!SEGMENT: s-uu--vok-mus-i-hs-43-17_scacchi-marco--laudate-pueri.krn
!!!cenid: 16xx:1767
!!!COM: Scacchi, Marco
!!!COM-rismID: pe30013433
!!!CDT: ~1605-1662
!!!CNT: Italian
!!!OTL: Laudate pueri
!!!PDT:
!!!AGN: Sacred
!!!YEC: Copyright 2022 Narodowy Instytut Fryderyka Chopina (https://polishscores.org)
!!!YEM: License CC-BY-4.0 (https://creativecommons.org/licenses/by/4.0)
!!!SMS-siglum: S-Uu
!!!SMS-shelfmark: Vok. mus. i hs. 43:17
!!!SMS-shelfwork: W
!!!SMS-variant:
!!!SMS-altvar:
!!!NIFC-rismSourceID: 190025590
!!!NIFC-rismChildID: 190025590
!!!NIFC-islandoraID: none
!!!URL-pdf-islandora:
!!!URL-scan: https://www2.musik.uu.se/duben/presentationSource1.php?Select_Dnr=1508 @EN{Scan at The Düben Collection Database Catalogue} @PL{Skany w The Düben Collection Database Catalogue}
!!!IIIF:
!!!ONB-nifc: UWAGA: partie dostępne po wybraniu”browse part”. Przewijanie stron za pomocą „next” i „previous” nad obrazem.
!!!AIN: 1 bass 2 soprn 2 violn
!!!key: G:mix
**kern	**fba	**kern	**kern	**kern	**text	**kern	**text	**kern	**text
*part6	*	*part5	*part4	*part3	*	*part2	*	*part1	*
*staff6	*	*staff5	*staff4	*staff3	*	*staff2	*	*staff1	*
*I"[bc]	*	*I"Violino. 2.	*I"Violino. 1.	*I"Basſo.	*	*I"Soprano 2do.	*	*I"Sop: 1mo.	*
*I'bc	*	*I'vl 2	*I'vl 1	*I'B	*	*I'S 2	*	*I'S 1	*
*	*	*Ivioln	*Ivioln	*Ibass	*	*Isoprn	*	*Isoprn	*
*ICklav	*	*ICstr	*ICstr	*ICvox	*	*ICvox	*	*ICvox	*
*IGcont	*	*	*	*	*	*	*	*	*
*clefF4	*	*clefG2	*clefG2	*clefF4	*	*clefC1	*	*clefC1	*
*k[]	*	*k[]	*k[]	*k[]	*	*k[]	*	*k[]	*
*G:mix	*	*G:mix	*G:mix	*G:mix	*	*G:mix	*	*G:mix	*
*M3/1	*	*M3/1	*M3/1	*M3/1	*	*M3/1	*	*M3/1	*
*met()	*	*	*	*	*	*	*	*met(C3/1)	*
=1-	=1-	=1-	=1-	=1-	=1-	=1-	=1-	=1-	=1-
!LO:TX:b:i:t=Baſso Solo	!	!	!	!	!	!	!	!LO:TX:b:i:t=8.	!
1G	.	00.r	00.r	1G	Lau-	00.r	.	00.r	.
1G	.	.	.	1G	-da-	.	.	.	.
1G	.	.	.	1G	-te	.	.	.	.
=2-	=2-	=2-	=2-	=2-	=2-	=2-	=2-	=2-	=2-
0c	.	.	.	1.c	pu-	.	.	.	.
.	.	.	.	2B\	-e-	.	.	.	.
1A	.	.	.	1A	-ri	.	.	.	.
=3-	=3-	=3-	=3-	=3-	=3-	=3-	=3-	=3-	=3-
*col	*	*	*	*	*	*	*	*	*
1E	6	0.r	1r	(2E\	do-	00.r	.	00.r	.
.	.	.	.	2F\)	.	.	.	.	.
!LO:TX:b:Bi:t=Viol. 1	!	!	!	!	!	!	!	!	!
0G	4	.	1r	1.G	-mi-	.	.	.	.
.	3	.	1gg	.	.	.	.	.	.
.	.	.	.	2G\	-num	.	.	.	.
*Xcol	*	*	*	*	*	*	*	*	*
=4-	=4-	=4-	=4-	=4-	=4-	=4-	=4-	=4-	=4-
!LO:TX:b:Bi:t=V.2.	!	!	!	!	!	!	!	!	!
0C	.	1r	1ee	0C	lau-	.	.	.	.
.	.	1r	2ee\	.	.	.	.	.	.
.	.	.	2ff\	.	.	.	.	.	.
!	!	!LO:TX:t=P:problem=kreska pseudotaktowa	!	!	!	!	!	!	!
1C	.	1cc	2gg\	1C	-da-	.	.	.	.
.	.	.	2ee\	.	.	.	.	.	.
=5-	=5-	=5-	=5-	=5-	=5-	=5-	=5-	=5-	=5-
0F	.	1a	1aa	1F	-te	00.r	.	00.r	.
.	.	1a	1cc	1F	lau-	.	.	.	.
!LO:TX:t=P:problem=kreska pseudotaktowa	!	!	!	!LO:TX:t=P:problem=kreska pseudotaktowa	!	!	!	!	!
1D	6	2b/	2dd\	1D	.	.	.	.	.
!	!	!LO:TX:t=P:problem=kreska pseudotaktowa	!LO:TX:t=P:problem=kreska pseudotaktowa	!	!	!	!	!	!
.	5	2a/	2cc\	.	.	.	.	.	.
=6-	=6-	=6-	=6-	=6-	=6-	=6-	=6-	=6-	=6-
0E	.	0g	1b	0E	-da-	.	.	.	.
.	.	.	1b	.	.	.	.	.	.
1C	.	1e	2cc\	1C	-te	.	.	.	.
.	.	.	2b/	.	.	.	.	.	.
=7-	=7-	=7-	=7-	=7-	=7-	=7-	=7-	=7-	=7-
0D	5 #	0f#X	1a	0D	no-	00.r	.	00.r	.
.	6 x	.	0b	.	.	.	.	.	.
1E	5	1g	.	1E	-men	.	.	.	.
=8-	=8-	=8-	=8-	=8-	=8-	=8-	=8-	=8-	=8-
*col	*	*	*	*lig	*	*	*	*	*
1C	6 5	1g	1cc	1C	do-	.	.	.	.
*Xcol	*	*	*	*	*	*	*	*	*
0D	4	1.g	1.a	1.D	.	.	.	.	.
*	*	*	*	*Xlig	*	*	*	*	*
!	!	!LO:TX:t=P:problem=kreska pseudotaktowa	!	!	!	!	!	!	!
.	7 #	2f#X/	2a/	2D/	-mi-	.	.	.	.
=9-	=9-	=9-	=9-	=9-	=9-	=9-	=9-	=9-	=9-
!LO:TX:b:Bi:t=c.c.	!	!	!	!	!	!	!	!	!
0G	.	1g	1g	1GG	-ni	1b	Sit	1dd	Sit
.	.	1r	1r	1r	.	1b	no-	1dd	no-
1G	.	1r	1r	1r	.	1b	-men	1dd	-men
*	*	*	*	*custos:A	*	*	*	*	*
!	!	!	!	!LO:LB:g=original	!	!	!	!	!
=10-	=10-	=10-	=10-	=10-	=10-	=10-	=10-	=10-	=10-
0C	.	00.r	00.r	00.r	.	1.cc	Do-	1.ee	Do-
.	.	.	.	.	.	2cc\	-mi-	2ee\	-mi-
!LO:TX:t=P:problem=kreska pseudotaktowa	!	!	!	!	!	!LO:TX:t=P:problem=kreska pseudotaktowa	!	!LO:TX:t=P:problem=kreska pseudotaktowa	!
1C	.	.	.	.	.	1cc	-ni	1ee	-ni
=11-	=11-	=11-	=11-	=11-	=11-	=11-	=11-	=11-	=11-
0C	5	.	.	.	.	(2cc\	be-	(2ee\	be-
.	.	.	.	.	.	2b\)	.	2dd\)	.
.	6	.	.	.	.	(2a\	-ne-	(2cc\	-ne-
.	.	.	.	.	.	2g/)	.	2b\)	.
1D	#	.	.	.	.	1f#X	-di-	1a	-di-
=12-	=12-	=12-	=12-	=12-	=12-	=12-	=12-	=12-	=12-
!LO:TX:b:Bi:t=2. viol.	!	!	!	!	!	!	!	!	!
0GG	.	(2gg\	(2bb\	00.r	.	1g	-ctum	1b	-ctum
.	.	2ff\)	2aa\)	.	.	.	.	.	.
.	.	(2ee\	(2gg\	.	.	1r	.	1r	.
.	.	2dd\)	2ff\)	.	.	.	.	.	.
1AA	#	1cc#X	1ee	.	.	1r	.	1r	.
=13-	=13-	=13-	=13-	=13-	=13-	=13-	=13-	=13-	=13-
0D	.	1dd	1dd	.	.	(2dd\	be-	(2ff\	be-
.	.	.	.	.	.	2cc\)	.	2ee\)	.
.	.	1r	1r	.	.	(2b\	-ne-	(2dd\	-ne-
.	.	.	.	.	.	2a\)	.	2cc\)	.
!	!	!	!	!	!	!LO:TX:t=P:problem=# above	!	!	!
1E	#	1r	1r	.	.	1g#X	-di-	1b	-di-
*	*	*	*custos:cc	*	*	*	*	*	*
!	!	!	!LO:LB:g=original	!	!	!	!	!	!
=14-	=14-	=14-	=14-	=14-	=14-	=14-	=14-	=14-	=14-
*col	*	*	*	*col	*	*	*	*	*
!LO:TX:b:Bi:t=B.	!	!	!	!	!	!	!	!	!
1A	.	00.r	00.r	1A	ex	1a	-ctum	1a	-ctum
1F	6	.	.	1F	hoc	1r	.	1r	.
*Xcol	*	*	*	*	*	*	*	*	*
*custos:G	*	*	*	*	*	*	*	*	*
!LO:LB:g=original	!	!	!	!	!	!	!	!	!
0G	.	.	.	0G	nunc	1b	ex	1dd	ex
*	*	*	*	*	*	*	*	*custos:b	*
!	!	!	!	!	!	!LO:LB:g=original	!	!LO:LB:g=original	!
=15-	=15-	=15-	=15-	=15-	=15-	=15-	=15-	=15-	=15-
.	.	.	.	.	.	1gny	hoc	0b	hoc
!LO:TX:t=P:problem=kreska pseudotaktowa	!	!	!	!LO:TX:t=P:problem=kreska pseudotaktowa	!	!LO:TX:t=P:problem=kreska pseudotaktowa	!	!	!
0E	5	.	.	0E	ex	0g	nunc	.	.
!	!	!	!	!	!	!	!	!LO:TX:t=P:problem=kreska pseudotaktowa	!
.	6	.	.	.	.	.	.	1cc	nunc
*	*	*	*	*Xcol	*	*	*	*	*
=16-	=16-	=16-	=16-	=16-	=16-	=16-	=16-	=16-	=16-
0F	5 3	00.r	00.r	0F	us-	1a	et	1cc	et
.	6 4	.	.	.	.	1b	ús-	1dd	us-
1E	6	.	.	1E	-q(ue)	1cc	-q(ue)	1ee	-q(ue)
=17-	=17-	=17-	=17-	=17-	=17-	=17-	=17-	=17-	=17-
*col	*	*	*	*	*	*	*	*	*
1F	6 5	.	.	1F	in	1cc	in	1dd	in
*Xcol	*	*	*	*	*	*	*	*	*
0G	4	.	.	1.G	ſae-	1.cc	ſe-	1.dd	ſae-
.	3	.	.	2G\	-cu-	2b\	-cu-	2dd\	-cu-
=18-	=18-	=18-	=18-	=18-	=18-	=18-	=18-	=18-	=18-
!LO:TX:b:Bi:t=2. viol.	!	!	!	!	!	!	!	!	!
0C	.	1ee	1cc	0C	-lum	0cc	-lum	0cc	-lum
.	.	1.gg	1.ee	.	.	.	.	.	.
1C	.	.	.	1r	.	1r	.	1r	.
.	.	2ff\	2dd\	.	.	.	.	.	.
!	!	!LO:LB:g=original	!	!	!	!	!	!	!
=19-	=19-	=19-	=19-	=19-	=19-	=19-	=19-	=19-	=19-
1C	.	1ee	1cc	00.r	.	00.r	.	00.r	.
!LO:TX:t=P:problem=kreska pseudotaktowa	!	!	!	!	!	!	!	!	!
0G	.	2dd\	2b/	.	.	.	.	.	.
.	.	2ccny\	2a/	.	.	.	.	.	.
.	.	2dd\	2b/	.	.	.	.	.	.
!	!	!LO:TX:t=P:problem=kreska pseudotaktowa	!LO:TX:t=P:problem=kreska pseudotaktowa	!	!	!	!	!	!
.	.	2ee\	2cc\	.	.	.	.	.	.
=20-	=20-	=20-	=20-	=20-	=20-	=20-	=20-	=20-	=20-
1F	6	1ff	1dd	.	.	.	.	.	.
1G	6 5	1.ee	1.dd	.	.	.	.	.	.
1A	4	.	.	.	.	.	.	.	.
.	#	2ee\	2cc#X\	.	.	.	.	.	.
=21-	=21-	=21-	=21-	=21-	=21-	=21-	=21-	=21-	=21-
0D	#	1dd	1dd	00.r	.	0.r	.	1a	Â
.	.	1r	1r	.	.	.	.	1.dd	ſo-
1F#X	.	1r	1r	.	.	.	.	.	.
!	!	!	!	!	!	!	!	!LO:TX:t=P:problem=kreska pseudotaktowa	!
.	.	.	.	.	.	.	.	2cc\	-lis
=22-	=22-	=22-	=22-	=22-	=22-	=22-	=22-	=22-	=22-
!LO:TX:b:Bi:t=C 2.	!	!	!	!	!	!	!	!	!
0G	.	00.r	00.r	.	.	1r	.	1b	or-
.	.	.	.	.	.	1r	.	1b	-tu
!	!	!	!	!	!	!LO:TX:t=P:problem=kreska pseudotaktowa	!	!	!
1G	.	.	.	.	.	1g	ã	1b	â
=23-	=23-	=23-	=23-	=23-	=23-	=23-	=23-	=23-	=23-
0E	6	.	.	00.r	.	1.cc	So-	1.ee	ſo-
.	.	.	.	.	.	2b\	-lis	2dd\	-lis
1Fny	.	.	.	.	.	1a	or-	1cc	or-
=24-	=24-	=24-	=24-	=24-	=24-	=24-	=24-	=24-	=24-
1F	.	00.r	00.r	.	.	1a	-tus	1cc	-tu
1.F	6 4	.	.	.	.	2b\	ús-	2dd\	us-
.	.	.	.	.	.	2a\	.	2cc\	.
.	.	.	.	.	.	2b\	.	2dd\	.
!LO:TX:t=P:problem=kreska pseudotaktowa	!	!	!	!	!	!	!	!	!
2E\	6	.	.	.	.	2cc\	.	2ee\	.
*	*	*	*	*	*	*	*	*custos:ff	*
!	!	!	!	!	!	!	!	!LO:LB:g=original	!
=25-	=25-	=25-	=25-	=25-	=25-	=25-	=25-	=25-	=25-
1D	-	.	.	00.r	.	1dd	.	1ff	.
1G	.	.	.	.	.	1b	-q(ue)	1dd	-q(ue)
1C	.	.	.	.	.	(2cc\	ad	(2ee\	ad
!	!	!	!	!	!	!LO:TX:t=P:problem=kreska pseudotaktowa	!	!LO:TX:t=P:problem=kreska pseudotaktowa	!
.	.	.	.	.	.	2b\)	.	2dd\)	.
=26-	=26-	=26-	=26-	=26-	=26-	=26-	=26-	=26-	=26-
1AA	.	0.r	0.r	.	.	(2cc\	oc-	(2ee\	oc-
.	.	.	.	.	.	2a\)	.	2cc\)	.
!LO:TX:t=P:problem=kreska pseudotaktowa	!	!	!	!	!	!	!	!	!
0DD	.	.	.	.	.	2dd\	-ca-	2ff\	-ca-
.	.	.	.	.	.	2cc\	.	2ee\	.
.	.	.	.	.	.	2b\	.	2dd\	.
.	.	.	.	.	.	2a\	.	2cc\	.
!	!	!	!	!	!	!LO:LB:g=original	!	!	!
=27-	=27-	=27-	=27-	=27-	=27-	=27-	=27-	=27-	=27-
*col	*	*	*	*	*	*	*	*	*
1EE	#	1r	1r	1r	.	1g#X	.	1b	.
*	*	*col	*	*	*	*	*	*	*
!LO:TX:b:Bi:t=B. et viol.	!	!	!	!LO:TX:b:i:t=Solo.	!	!	!	!	!
1AA	#	1ee	1cc#X	1A	lau-	1a	-súm	1a	-sum
!	!	!	!LO:TX:t=P:problem=kreska pseudotaktowa	!LO:TX:t=P:problem=kreska pseudotaktowa, między nutą a kropką	!	!	!	!	!
0D	#	0ff#X	1dd	1.D	-da-	1r	.	1r	.
=28-	=28-	=28-	=28-	=28-	=28-	=28-	=28-	=28-	=28-
.	.	.	2a/	.	.	00.r	.	00.r	.
.	.	.	2dd\	2D/	-bi-	.	.	.	.
*Xcol	*	*	*	*	*	*	*	*	*
!	!	!LO:TX:b:t=g	!	!	!	!	!	!	!
!LO:TX:t=P:problem=kreska pseudotaktowa	!	!LO:TX:t=P:problem=kreska pseudotaktowa	!	!	!	!	!	!	!
0G	.	0gg	2dd\	1G	-le	.	.	.	.
.	.	.	2ccny\	.	.	.	.	.	.
.	.	.	2b\	2G\	no-	.	.	.	.
!	!	!	!	!LO:TX:t=P:problem=kreska pseudotaktowa	!	!	!	!	!
.	.	.	2a/	2F\	.	.	.	.	.
*	*	*Xcol	*	*	*	*	*	*	*
=29-	=29-	=29-	=29-	=29-	=29-	=29-	=29-	=29-	=29-
1E	.	2gg\	0g	2E\	.	.	.	.	.
.	.	2ffny\	.	2D/	.	.	.	.	.
*custos:C	*	*	*	*	*	*	*	*	*
!LO:LB:g=original	!	!	!	!	!	!	!	!	!
!LO:TX:t=P:problem=kreska pseudotaktowa	!	!LO:TX:b:t=e	!	!	!	!	!	!	!
0C	.	2ee\	.	2C/	.	.	.	.	.
!	!	!LO:TX:b:t=f	!	!	!	!	!	!	!
.	.	2ff\	.	2D/	.	.	.	.	.
!	!	!LO:TX:t=P:problem=kreska pseudotaktowa	!	!	!	!	!	!	!
.	.	1gg	2r	2E\	.	.	.	.	.
.	.	.	2cc\	2C/	.	.	.	.	.
=30-	=30-	=30-	=30-	=30-	=30-	=30-	=30-	=30-	=30-
1c	.	1gg	2ee\	2c\	.	00.r	.	00.r	.
.	.	.	2dd\	2B\	.	.	.	.	.
1A	.	2r	2cc\	2A\	.	.	.	.	.
.	.	2gg\	2b/	2G\	.	.	.	.	.
0F	.	2aa\	2a/	2F\	.	.	.	.	.
!	!	!LO:TX:t=P:problem=kreska pseudotaktowa	!	!	!	!	!	!	!
.	.	2gg\	2b/	2G\	.	.	.	.	.
*	*	*	*custos:cc	*custos:A	*	*	*	*	*
!	!	!	!LO:LB:g=original	!LO:LB:g=original	!	!	!	!	!
=31-	=31-	=31-	=31-	=31-	=31-	=31-	=31-	=31-	=31-
.	.	2.ff\	2cc\	2A\	.	.	.	.	.
.	.	.	2a/	2F\	.	.	.	.	.
.	.	4ee\	.	.	.	.	.	.	.
1G	.	1dd	2b/	2G\	.	.	.	.	.
.	.	.	2a/	2F\	.	.	.	.	.
!LO:TX:t=P:problem=kreska pseudotaktowa	!	!LO:TX:t=P:problem=kreska pseudotaktowa, między nutą a kropką	!	!	!	!	!	!	!
1E	.	1.ee	2g/	2E\	.	.	.	.	.
.	.	.	2f/	2D/	.	.	.	.	.
=32-	=32-	=32-	=32-	=32-	=32-	=32-	=32-	=32-	=32-
1C	.	.	1e	2C/	.	00.r	.	00.r	.
.	.	2dd\	.	2BB/	.	.	.	.	.
1AA	.	2cc\	1r	2AA/	.	.	.	.	.
.	.	2b/	.	2GG/	.	.	.	.	.
1FF	.	2a/	1r	2AA/	.	.	.	.	.
!	!	!	!	!LO:TX:t=P:problem=kreska pseudotaktowa	!	!	!	!	!
.	.	2b/	.	2FF/	.	.	.	.	.
*	*	*custos:cc	*	*	*	*	*	*	*
!	!	!LO:LB:g=original	!	!	!	!	!	!	!
=33-	=33-	=33-	=33-	=33-	=33-	=33-	=33-	=33-	=33-
1EE	6	1cc	1ee	1EE	-men	.	.	.	.
!LO:TX:B:t=G.	!	!	!	!	!	!	!	!	!
0GG	4	1.cc	1.dd	1.GG	Do-	.	.	.	.
.	3	2b/	2dd\	2GG/	-mi-	.	.	.	.
=34-	=34-	=34-	=34-	=34-	=34-	=34-	=34-	=34-	=34-
*col	*	*	*	*col	*	*	*	*	*
1C	.	0cc	0ee	1C	-ni	1r	.	1r	.
!LO:TX:b:Bi:t=C. C. B.	!	!	!	!	!	!	!	!	!
!LO:TX:t=P:problem=kreska pseudotaktowa	!	!	!	!	!	!	!	!	!
0C	.	.	.	0C	ex-	1cc	Ex-	1ee	ex-
.	.	1r	1r	.	.	0cc	-cel-	0ee	-cel-
*Xcol	*	*	*	*Xcol	*	*	*	*	*
=35-	=35-	=35-	=35-	=35-	=35-	=35-	=35-	=35-	=35-
0G	6 4	00.r	00.r	0G	-cel-	.	.	.	.
.	5 3	.	.	.	.	1b	-ſ(us)	1dd	ſ(us)
!	!	!	!	!LO:TX:t=P:problem=kreska pseudotaktowa	!	!LO:TX:t=P:problem=kreska pseudotaktowa	!	!LO:TX:t=P:problem=kreska pseudotaktowa	!
1E	6	.	.	1E	-ſus	1cc	ſu-	1ee	ſu-
=36-	=36-	=36-	=36-	=36-	=36-	=36-	=36-	=36-	=36-
0F	5	.	.	0F	ſu-	0a	-per	1cc	-per
.	6	.	.	.	.	.	.	0dd	om-
1G	5	.	.	1G	-per	1b	om-	.	.
=37-	=37-	=37-	=37-	=37-	=37-	=37-	=37-	=37-	=37-
*col	*	*	*	*	*	*	*	*	*
1E	6	00.r	00.r	1E	om-	1gny	-nes	1cc	-nes
1F	6	.	.	1F	-nes	1a	gen-	1cc	gen-
.	5	.	.	.	.	.	.	.	.
*Xcol	*	*	*	*	*	*	*	*	*
0D	6	.	.	1D	gen-	1b	-tes	1dd	-tes
=38-	=38-	=38-	=38-	=38-	=38-	=38-	=38-	=38-	=38-
.	.	.	.	1D	-tes	0a	Do-	(2dd\	do-
.	.	.	.	.	.	.	.	2cc\)	.
!LO:TX:t=P:problem=kreska pseudotaktowa	!	!	!	!	!	!	!	!	!
0E	4 #	.	.	1.E	do-	.	.	1.b	.
.	.	.	.	.	.	1g#X	-mi-	.	.
.	.	.	.	2E\	-mi-	.	.	2b\	-mi-
=39-	=39-	=39-	=39-	=39-	=39-	=39-	=39-	=39-	=39-
!LO:TX:b:Bi:t=viol.	!	!	!	!	!	!	!	!	!
[>0AA	.	0.r	1e	0AA	-nu(s)	0a	-n(us)	0a	-n(us)
.	.	.	1e	.	.	.	.	.	.
!	!	!	!LO:TX:t=P:problem=kreska pseudotaktowa	!	!	!	!	!	!
1AA]	.	.	1e	1r	.	1r	.	1r	.
*	*	*	*	*	*	*	*	*custos:g	*
!	!	!	!	!	!	!	!	!LO:LB:g=original	!
=40-	=40-	=40-	=40-	=40-	=40-	=40-	=40-	=40-	=40-
!LO:TX:b:Bi:t=viol.	!	!	!	!	!	!	!	!	!
[>0AA	.	1e	1a	00.r	.	0.r	.	00.r	.
.	.	1e	2a/	.	.	.	.	.	.
.	.	.	2g/	.	.	.	.	.	.
!LO:TX:t=P:problem=kreska pseudotaktowa	!	!LO:TX:t=P:problem=kreska pseudotaktowa	!	!	!	!	!	!	!
1AA]	.	1e	2a/	.	.	.	.	.	.
.	.	.	2b/	.	.	.	.	.	.
=41-	=41-	=41-	=41-	=41-	=41-	=41-	=41-	=41-	=41-
!LO:TX:b:Bi:t=C. 2.	!	!	!	!	!	!	!	!	!
[>0AA	.	1a	1cc	.	.	1e	et	.	.
.	.	2a/	2cc\	.	.	1e	ſu-	.	.
.	.	2g/	2b/	.	.	.	.	.	.
!	!	!	!	!	!	!LO:TX:t=P:problem=kreska pseudotaktowa	!	!	!
1AA]	.	2a/	2cc\	.	.	1e	-per	.	.
!	!	!LO:TX:t=P:problem=kreska pseudotaktowa	!	!	!	!	!	!	!
.	.	2b/	2dd\	.	.	.	.	.	.
=42-	=42-	=42-	=42-	=42-	=42-	=42-	=42-	=42-	=42-
!LO:TX:b:Bi:t=B.	!	!	!	!	!	!	!	!	!
[>0AA	.	2cc\	1ee	1AA	et	1a	coe-	0.r	.
.	.	2dd\	.	.	.	.	.	.	.
.	.	1ee	1.aa	1AA	ſu-	2cc\	.	.	.
.	.	.	.	.	.	2b\	.	.	.
1AA]	.	1ee	.	1AA	-per	2cc\	.	.	.
.	.	.	2aa\	.	.	2dd\	.	.	.
*	*	*	*	*custos:C	*	*custos:ee	*	*	*
!	!	!	!	!LO:LB:g=original	!	!LO:LB:g=original	!	!	!
=43-	=43-	=43-	=43-	=43-	=43-	=43-	=43-	=43-	=43-
!LO:TX:b:Bi:t=C&colon; 1	!	!LO:TX:a:t=5	!	!	!	!	!	!	!
0C	.	00.r	1gg	1C	coe-	1.ee	.	1g	et
.	.	.	1gg	2E\	.	.	.	1g	ſu-
.	.	.	.	2D/	.	2dd\	.	.	.
!LO:TX:t=P:problem=kreska pseudotaktowa	!	!	!	!	!	!	!	!	!
1C	.	.	1r	2E\	.	2ee\	.	1g	-per
.	.	.	.	2F\	.	2ff\	.	.	.
=44-	=44-	=44-	=44-	=44-	=44-	=44-	=44-	=44-	=44-
0G	.	.	00.r	1G	.	1gg	.	1b	coe-
.	.	.	.	2B\	.	1gg	-los	2dd\	.
.	.	.	.	2A\	.	.	.	2cc\	.
1G	.	.	.	2B\	.	1r	.	2dd\	.
!	!	!	!	!LO:TX:t=P:problem=kreska pseudotaktowa	!	!	!	!	!
.	.	.	.	2c\	.	.	.	2ee\	.
=45-	=45-	=45-	=45-	=45-	=45-	=45-	=45-	=45-	=45-
0D	.	00.r	.	1d	.	1.dd	glo-	1ff	.
.	.	.	.	1D	-los	.	.	1ff	-los
.	.	.	.	.	.	4cc\	.	.	.
.	.	.	.	.	.	4b\	.	.	.
!	!	!	!	!	!	!	!	!LO:TX:t=P:problem=kreska pseudotaktowa, między nutą a kropką	!
1D	.	.	.	1r	.	2a\	.	1.ff	glo-
!	!	!	!	!	!	!LO:TX:t=P:problem=kreska pseudotaktowa	!	!	!
.	.	.	.	.	.	2b\	.	.	.
*custos:A	*	*	*	*	*	*	*	*	*
!LO:LB:g=original	!	!	!	!	!	!	!	!	!
=46-	=46-	=46-	=46-	=46-	=46-	=46-	=46-	=46-	=46-
0A	6	.	00.r	1.A	glo-	2cc\	.	.	.
.	.	.	.	.	.	2dd\	.	4ee\	.
.	.	.	.	.	.	.	.	4dd\	.
.	.	.	.	.	.	2ee\	.	2cc\	.
.	.	.	.	4G\	.	2ff\	.	2dd\	.
.	.	.	.	4F\	.	.	.	.	.
1E	.	.	.	2E\	.	1.gg	.	1.ee	.
.	.	.	.	2F\	.	.	.	.	.
=47-	=47-	=47-	=47-	=47-	=47-	=47-	=47-	=47-	=47-
0G	6	0.r	.	1.G	.	.	.	.	.
.	.	.	.	.	.	4ff\	.	4dd\	.
.	.	.	.	.	.	4ee\	.	4cc\	.
.	5	.	.	.	.	2dd\	.	2b\	.
.	.	.	.	4F\	.	2ee\	.	2cc\	.
.	.	.	.	4E\	.	.	.	.	.
1D	.	.	.	2D/	.	2ff\	.	2dd\	.
.	.	.	.	2E\	.	4ee\	.	4cc\	.
!	!	!	!	!	!	!LO:TX:t=P:problem=kreska pseudotaktowa	!	!	!
.	.	.	.	.	.	4dd\	.	4b\	.
=48-	=48-	=48-	=48-	=48-	=48-	=48-	=48-	=48-	=48-
*	*	*	*	*	*	*col	*	*	*
!LO:TX:b:Bi:t=2. viol.	!	!	!	!	!	!	!	!	!
0F	.	0cc	0aa	0F	-ri-	1.cc	.	1.a	.
.	.	.	.	.	.	.	.	.	.
.	.	.	.	.	.	.	.	.	.
.	.	.	.	.	.	2dd\	-ri-	2b\	-ri-
1E	6	1cc	1gg	1E	.	0ee	-a	1cc	-a
*	*	*	*	*	*	*	*	*custos:cc	*
!	!	!	!	!	!	!	!	!LO:LB:g=original	!
=49-	=49-	=49-	=49-	=49-	=49-	=49-	=49-	=49-	=49-
*col	*	*	*	*col	*	*	*	*	*
1F	7 5	1a	1aa	1F	-a	.	.	0cc	e-
.	.	.	.	.	.	.	.	.	.
!LO:TX:t=P:problem=kreska pseudotaktowa	!	!LO:TX:t=P:problem=kreska pseudotaktowa	!	!LO:TX:t=P:problem=kreska pseudotaktowa	!	!	!	!	!
0G	.	0dd	0gg	0G	e-	0dd	e-	.	.
!	!	!	!	!	!	!	!	!LO:TX:t=P:problem=kreska pseudotaktowa	!
.	.	.	.	.	.	.	.	1b	.
*Xcol	*	*	*	*Xcol	*	*Xcol	*	*	*
!	!	!	!LO:LB:g=original	!	!	!	!	!	!
=50-	=50-	=50-	=50-	=50-	=50-	=50-	=50-	=50-	=50-
1C	.	1cc	1gg	0C	-jus	0cc	-ius	0cc	-jus
1.c	.	1ee	1gg	.	.	.	.	.	.
!	!	!	!LO:TX:t=P:problem=kreska pseudotaktowa	!	!	!	!	!	!
.	.	1ee	1gg	1r	.	1r	.	1r	.
2c\	.	.	.	.	.	.	.	.	.
=51-	=51-	=51-	=51-	=51-	=51-	=51-	=51-	=51-	=51-
0A	6	1.ff	1.aa	00.r	.	00.r	.	00.r	.
.	.	2ee\	2gg\	.	.	.	.	.	.
1B-X	.	2dd\	2ff\	.	.	.	.	.	.
!	!	!LO:TX:t=P:problem=kreska pseudotaktowa	!	!	!	!	!	!	!
.	.	2dd\	2ff\	.	.	.	.	.	.
=52-	=52-	=52-	=52-	=52-	=52-	=52-	=52-	=52-	=52-
1G	6	2ee\	2gg\	.	.	.	.	.	.
.	.	2dd\	2ff\	.	.	.	.	.	.
1A	.	2cc\	2ee\	.	.	.	.	.	.
.	.	2cc\	2ee\	.	.	.	.	.	.
1F	6	2dd\	2ff\	.	.	.	.	.	.
!	!	!LO:TX:t=P:problem=kreska pseudotaktowa	!	!	!	!	!	!	!
.	.	2cc\	2ee\	.	.	.	.	.	.
=53-	=53-	=53-	=53-	=53-	=53-	=53-	=53-	=53-	=53-
1G	.	2b/	2dd\	00.r	.	00.r	.	00.r	.
.	.	2cc\	2ee\	.	.	.	.	.	.
!LO:TX:t=P:problem=kreska pseudotaktowa	!	!	!	!	!	!	!	!	!
0D	.	2dd\	2ff\	.	.	.	.	.	.
.	.	2ee\	2gg\	.	.	.	.	.	.
*	*	*custos:ff	*	*	*	*	*	*	*
!	!	!LO:LB:g=original	!	!	!	!	!	!	!
!	!	!LO:TX:t=P:problem=kreska pseudotaktowa, między nutą a kropką	!	!	!	!	!	!	!
.	.	1.ff	2aa\	.	.	.	.	.	.
.	.	.	2ff\	.	.	.	.	.	.
=54-	=54-	=54-	=54-	=54-	=54-	=54-	=54-	=54-	=54-
*col	*	*	*	*	*	*	*	*	*
1BB	6 5	.	1.gg	.	.	.	.	.	.
.	.	2ff\	.	.	.	.	.	.	.
!LO:TX:b:Bi:t=C	!	!	!	!	!	!	!	!	!
0C	.	1ee	.	.	.	.	.	.	.
.	.	.	2ff\	.	.	.	.	.	.
!	!	!LO:TX:t=P:problem=kreska pseudotaktowa, między nutą a kropką	!	!	!	!	!	!	!
.	.	1.ee	2gg\	.	.	.	.	.	.
.	.	.	2aa\	.	.	.	.	.	.
*Xcol	*	*	*	*	*	*	*	*	*
=55-	=55-	=55-	=55-	=55-	=55-	=55-	=55-	=55-	=55-
0D	9	.	1.ff	00.r	.	00.r	.	00.r	.
.	.	2ee\	.	.	.	.	.	.	.
.	8	1dd	.	.	.	.	.	.	.
.	.	.	2ee\	.	.	.	.	.	.
!	!	!LO:TX:t=P:problem=kreska pseudotaktowa	!	!	!	!	!	!	!
1BB-X	.	1dd	2ff\	.	.	.	.	.	.
!	!	!	!LO:TX:t=P:problem=kreska pseudotaktowa	!	!	!	!	!	!
.	.	.	2gg\	.	.	.	.	.	.
=56-	=56-	=56-	=56-	=56-	=56-	=56-	=56-	=56-	=56-
1AA	6 -	0dd	0ee	.	.	.	.	.	.
0AA	5 4	.	.	.	.	.	.	.	.
.	#	1cc#X	1ee	.	.	.	.	.	.
=57-	=57-	=57-	=57-	=57-	=57-	=57-	=57-	=57-	=57-
!LO:TX:t=P:problem=niejednoznaczny zapis [źródło nieczytelne]	!	!	!	!	!	!	!	!	!
0D	#	1dd	1dd	0.r	.	0.r	.	0.r	.
.	.	1r	1r	.	.	.	.	.	.
1r	.	1r	1r	.	.	.	.	.	.
=58-	=58-	=58-	=58-	=58-	=58-	=58-	=58-	=58-	=58-
*M2/1	*	*M2/1	*M2/1	*M2/1	*	*M2/1	*	*M2/1	*
*met(C)	*	*met(C)	*met(C)	*met(C)	*	*met(C)	*	*met(C)	*
!LO:TX:b:Bi:t=G	!	!	!	!	!	!	!	!	!
1GG	6	00r	00r	00r	.	4r	.	00r	.
.	.	.	.	.	.	2e/	quis	.	.
.	5	.	.	.	.	8d/	ſi-	.	.
.	.	.	.	.	.	8d/	-cut	.	.
!	!	!	!	!	!	!LO:LB:g=original	!	!	!
1C	.	.	.	.	.	4.e/	Do-	.	.
.	.	.	.	.	.	8e/	-mi-	.	.
.	.	.	.	.	.	4e/	-n(us)	.	.
*	*	*	*	*	*	*	*ij	*	*
.	.	.	.	.	.	2cc\	Do-	.	.
=59-	=59-	=59-	=59-	=59-	=59-	=59-	=59-	=59-	=59-
2E\	6	.	.	.	.	.	.	.	.
.	5	.	.	.	.	8b-X\	-mi-	.	.
.	.	.	.	.	.	8b-\	-n(us)	.	.
!LO:TX:t=P:problem=kreska pseudotaktowa	!	!	!	!	!	!	!	!	!
2F\	-	.	.	.	.	4.a\	Do-	.	.
!	!	!	!	!	!	!LO:TX:t=P:problem=kreska pseudotaktowa	!	!	!
.	.	.	.	.	.	8a\	-mi-	.	.
2D/	.	.	.	.	.	4a\	-n(us)	.	.
*	*	*	*	*	*	*	*Xij	*	*
.	.	.	.	.	.	8fny/	De-	.	.
.	.	.	.	.	.	8gny/	-us	.	.
4BB-X/	6 5	.	.	.	.	2g/	nos-	.	.
4C/	5	.	.	.	.	.	.	.	.
=60-	=60-	=60-	=60-	=60-	=60-	=60-	=60-	=60-	=60-
1FF	.	4r	4r	00r	.	2f/	-ter	00r	.
.	.	4.ff\	4.aa\	.	.	.	.	.	.
.	.	.	.	.	.	2r	.	.	.
.	.	8ff\L	8aa\	.	.	.	.	.	.
.	.	8ee\	8gg\L	.	.	.	.	.	.
!	!	!LO:TX:t=P:problem=kreska pseudotaktowa	!	!	!	!	!	!	!
.	.	8dd\J	8ff\J	.	.	.	.	.	.
*custos:C	*	*	*	*	*	*	*	*	*
!LO:LB:g=original	!	!	!LO:LB:g=original	!	!	!	!	!	!
2C/	.	8ee\L	8gg\L	.	.	1r	.	.	.
.	.	8ee\	8gg\	.	.	.	.	.	.
.	.	8ccny\	8ee\	.	.	.	.	.	.
.	.	8ee\J	8gg\J	.	.	.	.	.	.
4D/	6	4dd\	8ff\L	.	.	.	.	.	.
.	.	.	8ff\	.	.	.	.	.	.
4E\	6	8cc\L	8ee\	.	.	.	.	.	.
.	.	8cc\J	8ee\J	.	.	.	.	.	.
=61-	=61-	=61-	=61-	=61-	=61-	=61-	=61-	=61-	=61-
4F\	6 5	4.cc\	4.dd\	.	.	2r	.	.	.
4G\	.	.	.	.	.	.	.	.	.
.	.	8b/	8dd\	.	.	.	.	.	.
!LO:TX:b:Bi:t=C 2.	!	!	!	!	!	!	!	!	!
2.C/	.	2cc\	2ee\	.	.	4r	.	.	.
.	.	.	.	.	.	8cc\	qui	.	.
.	.	.	.	.	.	8cc\	in	.	.
.	.	00r	00r	.	.	8dd\L	al-	.	.
.	.	.	.	.	.	8ee\	.	.	.
4BBny/	5 2	.	.	.	.	8ff\	.	.	.
.	6 x	.	.	.	.	8gg\J	.	.	.
4C/	6 3	.	.	.	.	4ee\	.	.	.
!	!	!	!	!	!	!LO:TX:t=P:problem=kreska pseudotaktowa	!	!	!
4BB/	6	.	.	.	.	4dd\	-tis	.	.
=62-	=62-	=62-	=62-	=62-	=62-	=62-	=62-	=62-	=62-
2AA/	7	.	.	2r	.	4.cc\	ha-	1r	.
.	6	.	.	.	.	8cc\	-bi-	.	.
4GG/	.	.	.	4r	.	4bny\	-tat	.	.
!LO:TX:b:Bi:t=B. C. 1.	!	!	!	!	!	!	!	!	!
2G\	.	.	.	2G\	et	2b\	et	.	.
.	.	.	.	.	.	.	.	4r	.
4F\	6	.	.	4F\	hu-	4a\	hu-	2dd\	Et
*	*	*	*	*custos:E	*	*	*	*	*
!	!	!	!	!LO:LB:g=original	!	!	!	!	!
!	!	!	!	!LO:TX:t=P:problem=kreska pseudotaktowa, między nuta a kropką	!	!	!	!	!
1E\	7	.	.	2.E\	-mi-	4g#X/	-mi-	.	.
!	!	!	!	!	!	!	!	!LO:TX:t=P:problem=kreska pseudotaktowa	!
.	4	.	.	.	.	2a\	.	4cc\	hu-
=63-	=63-	=63-	=63-	=63-	=63-	=63-	=63-	=63-	=63-
.	.	.	.	.	.	.	.	4.b\	-mi-
.	#	.	.	4E\	-li-	4g#/	-li-	.	.
.	.	.	.	.	.	.	.	8b\	-li-
4AA/	6	.	.	4AA/	-a	2a\	-a	2cc\	-a
4.A\	5	.	.	4.A\	re-	.	.	.	.
*	*	*	*	*	*	*custos:cc	*	*	*
!	!	!	!	!	!	!LO:LB:g=original	!	!	!
.	.	00r	00r	.	.	4r	.	4r	.
8A\L	3	.	.	8A\	-ſpi-	.	.	.	.
8G\	6 4	.	.	8G\	-cit	4.cc\	re-	4.ee\	re-
8F\J	7 6	.	.	8F\	in	.	.	.	.
[<2G\	6 4	.	.	4G\	coe-	.	.	.	.
.	.	.	.	.	.	8cc\	-ſpi-	8ee\	-ſpi-
.	.	.	.	4G\	-lo	8b\	-cis	8dd\	-cit
.	.	.	.	.	.	8a\	in	8cc\	in
=64-	=64-	=64-	=64-	=64-	=64-	=64-	=64-	=64-	=64-
2G\]	5 3	.	.	4.G\	et	4b\	coe-	4dd\	coe-
.	.	.	.	.	.	4b\	-lo	4dd\	-lo
.	.	.	.	8F\	.	.	.	.	.
!LO:TX:t=P:problem=kreska pseudotaktowa	!	!	!	!	!	!	!	!	!
2E\	.	.	.	4.E\	.	4r	.	4r	.
!	!	!	!	!	!	!LO:TX:t=P:problem=kreska pseudotaktowa, między nuta a kropką	!	!LO:TX:t=P:problem=kreska pseudotaktowa, między nuta a kropką	!
.	.	.	.	.	.	4.ee\	et	4.gg\	et
!	!	!	!	!LO:TX:t=P:problem=kreska pseudotaktowa	!	!	!	!	!
.	.	.	.	8D/	.	.	.	.	.
2.C/	.	.	.	2.C/	.	.	.	.	.
.	.	.	.	.	.	8dd\	.	8ff\	.
.	.	.	.	.	.	4.cc\	.	4.ee\	.
.	.	.	.	.	.	8b\	.	8dd\	.
4C/	6	.	.	4C/	in	8a\L	.	2cc\	.
.	.	.	.	.	.	8gny\J	.	.	.
=65-	=65-	=65-	=65-	=65-	=65-	=65-	=65-	=65-	=65-
1D	7 #	.	.	1D	ter-	8f#X/	.	.	.
.	.	.	.	.	.	8f#/	.	.	.
.	6 4	.	.	.	.	2g/	in	4b\	in
!	!	!	!	!	!	!	!	!LO:TX:t=P:problem=kreska pseudotaktowa	!
.	.	.	.	.	.	.	.	2a\	ter-
.	5 3	.	.	.	.	4f#X/	ter-	.	.
1G	.	00r	00r	2GG/	-ra	4g/	-ra	4b\	-ra
.	.	.	.	.	.	4.g/	ſus-	4.b\	ſus-
.	.	.	.	2r	.	.	.	.	.
.	.	.	.	.	.	8g/	-ci-	8b\	-ci-
*	*	*	*	*	*	*	*	*custos:cc	*
!	!	!	!	!	!	!	!	!LO:LB:g=original	!
.	.	.	.	.	.	8a\	-tans	8cc\	-tans
!	!	!	!	!	!	!	!	!LO:TX:t=P:problem=kreska pseudotaktowa	!
.	.	.	.	.	.	8b\	â	8dd\	â
=66-	=66-	=66-	=66-	=66-	=66-	=66-	=66-	=66-	=66-
4C/	.	.	.	1r	.	8cc\	ter-	4ee\	te-
.	.	.	.	.	.	8g/	-ra	.	.
4E\	6	.	.	.	.	2cc\	in-	4ee\	-râ
4F\	6 5	.	.	.	.	.	.	4.dd\	in-
4G\	.	.	.	.	.	4b\	o-	.	.
.	.	.	.	.	.	.	.	8dd\	-o-
4C/	.	.	.	4r	.	2cc\	-pem	4ee\	-pem
*	*	*	*	*	*	*	*	*	*ij
!LO:TX:b:Bi:t=B.	!	!	!	!	!	!	!	!	!
2c\	.	.	.	4.c\	ſus-	.	.	4.e/	ſus-
.	.	.	.	.	.	4.cc\	ſus-	.	.
.	.	.	.	8c\	-ci-	.	.	8e/	-ci-
8B-X\L	.	.	.	8B-X\	-tans	.	.	8f/	-tans
!LO:TX:t=P:problem=kreska pseudotaktowa	!	!	!	!LO:TX:t=P:problem=kreska pseudotaktowa	!	!LO:TX:t=P:problem=kreska pseudotaktowa	!	!LO:TX:t=P:problem=kreska pseudotaktowa	!
8G\J	6 4	.	.	8G\	â	8c/	-ci-	8g/	â
=67-	=67-	=67-	=67-	=67-	=67-	=67-	=67-	=67-	=67-
4F\	6	.	.	4F\	ter-	8d/	-tans	4a\	te-
.	.	.	.	.	.	8e/	â	.	.
!	!	!	!	!	!	!LO:LB:g=original	!	!	!
4D/	.	.	.	4D/	-râ	8fny/	ter-	4f/	-râ
.	.	.	.	.	.	8d/	-ra	.	.
!LO:TX:b:Bi:t=2. viol.	!	!	!	!	!	!	!	!	!
2AA/	4	.	.	4.A\	in-	4.d/	in-	4.e/	in-
.	#	.	.	8A\	-o-	8c#X/	-o-	8e/	-o-
2D/	#	4.f#X/	4.a/	2D/	-pem	2d/	-pem	2d/	-pem
*	*	*	*	*	*	*	*	*	*Xij
.	.	8f#/	8a/	.	.	.	.	.	.
2G\	.	16g/LL	16b\LL	2r	.	2r	.	2r	.
.	.	16f#/	16a\	.	.	.	.	.	.
.	.	16g/	16b\	.	.	.	.	.	.
.	.	16a/JJ	16cc\JJ	.	.	.	.	.	.
.	.	8b/L	8dd\L	.	.	.	.	.	.
.	.	16a/L	16cc\L	.	.	.	.	.	.
!	!	!LO:TX:t=P:problem=kreska pseudotaktowa	!LO:TX:t=P:problem=kreska pseudotaktowa	!	!	!	!	!	!
.	.	16b/JJ	16dd\JJ	.	.	.	.	.	.
=68-	=68-	=68-	=68-	=68-	=68-	=68-	=68-	=68-	=68-
2C/	.	16cc\LL	16ee\LL	00r	.	0r	.	1r	.
.	.	16b\	16dd\	.	.	.	.	.	.
.	.	16cc\	16ee\	.	.	.	.	.	.
.	.	16dd\JJ	16ff\JJ	.	.	.	.	.	.
.	.	8ee\L	16gg\LL	.	.	.	.	.	.
.	.	.	16ff\	.	.	.	.	.	.
.	.	8cc\J	16gg\	.	.	.	.	.	.
.	.	.	16aa\JJ	.	.	.	.	.	.
*custos:F	*	*	*	*	*	*	*	*	*
!LO:LB:g=original	!	!	!	!	!	!	!	!	!
4F\	6 5	4.cc\	16ff\LL	.	.	.	.	.	.
.	.	.	16gg\	.	.	.	.	.	.
.	.	.	16ff\	.	.	.	.	.	.
.	.	.	16ee\JJ	.	.	.	.	.	.
4G\	.	.	8.dd\L	.	.	.	.	.	.
.	.	8b/	.	.	.	.	.	.	.
.	.	.	16dd\Jk	.	.	.	.	.	.
!LO:TX:b:Bi:t=C 1.	!	!	!	!	!	!	!	!	!
4.C/	.	2cc\	2cc\	.	.	.	.	4.g/	et
8BB/	6	.	.	.	.	.	.	8g/	de
2AA/	7	2r	2r	.	.	.	.	16a\LL	ster-
.	.	.	.	.	.	.	.	16g\	.
.	.	.	.	.	.	.	.	16a\	.
.	.	.	.	.	.	.	.	16b\JJ	.
.	6	.	.	.	.	.	.	16cc\LL	.
.	.	.	.	.	.	.	.	16b\	.
.	.	.	.	.	.	.	.	16cc\	.
.	.	.	.	.	.	.	.	16dd\JJ	.
=69-	=69-	=69-	=69-	=69-	=69-	=69-	=69-	=69-	=69-
2GG/	.	00r	00r	.	.	2r	.	4.b\	.
.	.	.	.	.	.	.	.	8b\	-co-
!LO:TX:b:Bi:t=C 2.	!	!	!	!	!	!	!	!	!
!LO:TX:t=P:problem=kreska pseudotaktowa	!	!	!	!	!	!	!	!	!
2G\	.	.	.	.	.	4r	.	4b\	-re
.	.	.	.	.	.	8g/	et	8b\	et
!	!	!	!	!	!	!LO:TX:t=P:problem=kreska pseudotaktowa	!	!LO:TX:t=P:problem=kreska pseudotaktowa	!
.	.	.	.	.	.	8g/	de	8b\	de
4F\	.	.	.	.	.	16a\LL	ſter-	16cc\LL	ster-
.	.	.	.	.	.	16g\	.	16b\	.
.	.	.	.	.	.	16a\	.	16cc\	.
.	.	.	.	.	.	16b\JJ	.	16dd\JJ	.
4E\	6	.	.	.	.	16cc\LL	.	16ee\LL	.
.	.	.	.	.	.	16b\	.	16dd\	.
.	.	.	.	.	.	16cc\	.	16ee\	.
.	.	.	.	.	.	16dd\JJ	.	16ff\JJ	.
4.G\	.	.	.	.	.	8.b\	.	8.dd\	.
.	.	.	.	.	.	16b\	-co-	16dd\	-co-
.	.	.	.	.	.	8b\	-re	8dd\	-re
8E\	6	.	.	.	.	(16cc\LL	e-	(16ee\LL	e-
.	.	.	.	.	.	16b\JJ)	.	16dd\JJ)	.
*	*	*	*	*	*	*	*	*custos:cc	*
!	!	!	!	!	!	!	!	!LO:LB:g=original	!
=70-	=70-	=70-	=70-	=70-	=70-	=70-	=70-	=70-	=70-
4F\	.	.	.	0r	.	8a\L	.	8cc\L	.
.	.	.	.	.	.	16g\L	.	16b\L	.
.	.	.	.	.	.	16a\JJ	.	16cc\JJ	.
4D/	6	.	.	.	.	8b\L	.	8dd\L	.
.	.	.	.	.	.	16a\L	.	16cc\L	.
.	.	.	.	.	.	16b\JJ	.	16dd\JJ	.
4E\	.	.	.	.	.	4g/	.	8b\L	.
.	.	.	.	.	.	.	.	16a\L	.
.	.	.	.	.	.	.	.	16b\JJ	.
4C/	6	.	.	.	.	8a\	-ri-	2cc\	-ri-
.	5	.	.	.	.	8g/	-gens	.	.
4D/	7 #	.	.	.	.	(4f#X/	paú-	.	.
4E\	5	.	.	.	.	2g/)	.	8b\	.
.	.	.	.	.	.	.	.	8b\	-gens
4C/	6 5	.	.	.	.	.	.	4.a\	pau-
4D/	#	.	.	.	.	4f#/	-pe-	.	.
.	.	.	.	.	.	.	.	8a\	-pe-
!	!	!LO:LB:g=original	!	!	!	!	!	!	!
=71-	=71-	=71-	=71-	=71-	=71-	=71-	=71-	=71-	=71-
*M3/1	*	*M3/1	*M3/1	*M3/2	*	*M3/1	*	*M3/1	*
!LO:TX:b:Bi:t=B.	!	!	!	!LO:TX:b:i:t=Solo	!	!	!	!	!
0G	.	00.r	00.r	1G	ut	0g	-rem	0b	-rem
.	.	.	.	1G	col-	.	.	.	.
2A\	.	.	.	2A\	-lo-	1r	.	1r	.
2Bny\	.	.	.	2Bny\	-cet	.	.	.	.
=72-	=72-	=72-	=72-	=72-	=72-	=72-	=72-	=72-	=72-
!	!	!	!	!	!	!LO:TX:b:t=8	!	!	!
1.c	.	.	.	1.c	e-	00.r	.	00.r	.
2B\	.	.	.	2B\	-um	.	.	.	.
!LO:TX:t=P:problem=kreska pseudotaktowa	!	!	!	!LO:TX:t=P:problem=kreska pseudotaktowa	!	!	!	!	!
1A	.	.	.	1A	cum	.	.	.	.
=73-	=73-	=73-	=73-	=73-	=73-	=73-	=73-	=73-	=73-
1E	6	1r	1r	1E	prin-	.	.	.	.
!LO:TX:b:Bi:t=2. viol.	!	!	!	!	!	!	!	!	!
0G	4	1r	1r	1.G	-ci-	.	.	.	.
!	!	!LO:TX:t=P:problem=kreska pseudotaktowa	!	!	!	!	!	!	!
.	3	1b	1dd	.	.	.	.	.	.
.	.	.	.	2G\	-pi-	.	.	.	.
=74-	=74-	=74-	=74-	=74-	=74-	=74-	=74-	=74-	=74-
1.C	.	4cc\	4ee\	1C	-bus	00.r	.	00.r	.
.	.	4b/	4dd\	.	.	.	.	.	.
.	.	4cc\	4ee\	.	.	.	.	.	.
.	.	4dd\	4ff\	.	.	.	.	.	.
.	.	2cc\	2ee\	1r	.	.	.	.	.
2GG/	.	2b/	2dd\	.	.	.	.	.	.
1.AA	.	4a/	4cc\	1r	.	.	.	.	.
.	.	4g/	4b\	.	.	.	.	.	.
.	.	4a/	4cc\	.	.	.	.	.	.
.	.	4b/	4dd\	.	.	.	.	.	.
!	!	!	!LO:LB:g=original	!	!	!	!	!	!
=75-	=75-	=75-	=75-	=75-	=75-	=75-	=75-	=75-	=75-
!	!	!	!	!LO:TX:b:i:t=7	!	!	!	!	!
.	.	2a/	2cc\	00.r	.	.	.	.	.
2BB/	6	2g/	2b/	.	.	.	.	.	.
0D	#	4f#X/	4a/	.	.	.	.	.	.
.	.	4e/	4g/	.	.	.	.	.	.
.	.	4f#/	4a/	.	.	.	.	.	.
.	.	4g/	4b/	.	.	.	.	.	.
!	!	!LO:TX:t=P:problem=kreska pseudotaktowa	!LO:TX:t=P:problem=kreska pseudotaktowa	!	!	!	!	!	!
.	.	1f#X	1a	.	.	.	.	.	.
*	*	*	*	*	*	*custos:b	*	*	*
!	!	!	!	!	!	!LO:LB:g=original	!	!	!
=76-	=76-	=76-	=76-	=76-	=76-	=76-	=76-	=76-	=76-
1GG	.	1g	1g	.	.	1r	.	1r	.
!LO:TX:b:Bi:t=C. C.	!	!	!	!	!	!	!	!	!
1G	.	1r	1r	.	.	1b	cum	1dd	cum
!	!	!	!	!	!	!	!	!LO:TX:t=P:problem=kreska pseudotaktowa	!
1G	.	1r	1r	.	.	1b	prin-	1dd	prin-
*custos:C	*	*	*	*	*	*	*	*	*
!LO:LB:g=original	!	!	!	!	!	!	!	!	!
=77-	=77-	=77-	=77-	=77-	=77-	=77-	=77-	=77-	=77-
0C	.	00.r	00.r	00.r	.	1.cc	-ci-	1.ee	-ci-
.	.	.	.	.	.	2cc\	-pi-	2ee\	-pi-
!LO:TX:t=P:problem=kreska pseudotaktowa	!	!	!	!	!	!LO:TX:t=P:problem=kreska pseudotaktowa	!	!	!
1C	.	.	.	.	.	1cc	-b(us)	1ee	-b(us)
=78-	=78-	=78-	=78-	=78-	=78-	=78-	=78-	=78-	=78-
1F	.	.	.	.	.	4a\	po-	4cc\	po-
.	.	.	.	.	.	4g\	.	4b\	.
.	.	.	.	.	.	4a\	.	4cc\	.
.	.	.	.	.	.	4b\	.	4dd\	.
1C	.	.	.	.	.	1cc	.	1ee	.
1G	.	.	.	.	.	4b\	.	4dd\	.
.	.	.	.	.	.	4a\	.	4cc\	.
.	.	.	.	.	.	4b\	.	4dd\	.
.	.	.	.	.	.	4cc\	.	4ee\	.
=79-	=79-	=79-	=79-	=79-	=79-	=79-	=79-	=79-	=79-
0D	.	0.r	0.r	00.r	.	1dd	.	1ff	.
.	.	.	.	.	.	2dd\	-pu-	2ff\	-pu-
.	.	.	.	.	.	2dd\	-li	2ff\	-li
1AA	#	.	.	.	.	1cc#X	ſú-	1ee	ſu-
=80-	=80-	=80-	=80-	=80-	=80-	=80-	=80-	=80-	=80-
!LO:TX:b:Bi:t=viol.	!	!	!	!	!	!	!	!	!
1D	.	1r	4a/	.	.	1dd	-i	1dd	-i
.	.	.	4g/	.	.	.	.	.	.
.	.	.	4a/	.	.	.	.	.	.
.	.	.	4b/	.	.	.	.	.	.
1AA	.	4e/	1cc	.	.	1r	.	1r	.
.	.	4d/	.	.	.	.	.	.	.
.	.	4e/	.	.	.	.	.	.	.
.	.	4fny/	.	.	.	.	.	.	.
!	!	!LO:TX:t=P:problem=kreska pseudotaktowa	!	!	!	!	!	!	!
1E	.	1g	4b/	.	.	1r	.	1r	.
.	.	.	4a/	.	.	.	.	.	.
.	.	.	4b/	.	.	.	.	.	.
!	!	!	!LO:TX:t=P:problem=kreska pseudotaktowa	!	!	!	!	!	!
.	.	.	4cc\	.	.	.	.	.	.
=81-	=81-	=81-	=81-	=81-	=81-	=81-	=81-	=81-	=81-
1D	.	4f/	1dd	0.r	.	0.r	.	0.r	.
.	.	4e/	.	.	.	.	.	.	.
.	.	4f/	.	.	.	.	.	.	.
.	.	4g/	.	.	.	.	.	.	.
1AA	.	2a/	2cc\	.	.	.	.	.	.
.	.	2a/	2cc\	.	.	.	.	.	.
!	!	!LO:TX:t=P:problem=kreska pseudotaktowa	!LO:TX:t=P:problem=kreska pseudotaktowa	!	!	!	!	!	!
1E	#	1g#X	1b	.	.	.	.	.	.
*	*	*	*	*	*	*	*	*custos:ee	*
!	!	!	!	!	!	!	!	!LO:LB:g=original	!
=82-	=82-	=82-	=82-	=82-	=82-	=82-	=82-	=82-	=82-
!LO:TX:b:Bi:t=C. C. B.	!	!	!	!	!	!	!	!	!
1A	#	1a	1a	1A	qui	1cc#X	qui	1ee	qui
1A	.	1r	1r	1A	ha-	1cc#	ha-	1ee	ha-
!LO:TX:t=P:problem=kreska pseudotaktowa	!	!	!	!LO:TX:t=P:problem=kreska pseudotaktowa	!	!LO:TX:t=P:problem=kreska pseudotaktowa	!	!LO:TX:t=P:problem=kreska pseudotaktowa	!
1A	.	1r	1r	1A	-bi-	1cc#	-bi-	1ee	-bi-
=83-	=83-	=83-	=83-	=83-	=83-	=83-	=83-	=83-	=83-
*col	*	*	*	*col	*	*col	*	*	*
!	!	!	!LO:TX:b:i:t=7.	!	!	!	!	!	!
1D	-	00.r	00.r	1D	-ta-	1dd	-ta-	1ff	-ta-
*Xcol	*	*	*	*	*	*	*	*	*
0G	5	.	.	0G	-re	0b	-re	1dd	-re
.	6	.	.	.	.	.	.	1ee	fa-
*	*	*	*	*Xcol	*	*Xcol	*	*	*
=84-	=84-	=84-	=84-	=84-	=84-	=84-	=84-	=84-	=84-
0A	.	.	.	0A	fa-	0ccny	fa-	1ee	-cit
.	.	.	.	.	.	.	.	(1cc	ste-
1F	6	.	.	1F	-cit	1a	-cit	1.dd)	.
=85-	=85-	=85-	=85-	=85-	=85-	=85-	=85-	=85-	=85-
0G	.	00.r	00.r	1.G	ste-	1.b	ſte-	.	.
.	.	.	.	.	.	.	.	2dd\	-ri-
.	.	.	.	.	.	.	.	1dd	-lem
.	.	.	.	2G\	-ri-	2b\	-ri-	.	.
1E	6	.	.	1E	-lem	1ee	-lem	1cc	in
*	*	*	*	*custos:A	*	*custos:ee	*	*	*
!	!	!	!	!LO:LB:g=original	!	!LO:LB:g=original	!	!	!
=86-	=86-	=86-	=86-	=86-	=86-	=86-	=86-	=86-	=86-
1A	.	.	.	1A	in	1ee	in	0cc	do-
*	*	*	*	*lig	*	*	*	*	*
1F	6 5	.	.	1F	do-	0dd	do-	.	.
1G	.	.	.	1G	.	.	.	1b	.
*	*	*	*	*Xlig	*	*	*	*	*
=87-	=87-	=87-	=87-	=87-	=87-	=87-	=87-	=87-	=87-
0C	.	00.r	00.r	0C	-mo	1ee	-mo	1cc	-mo
.	.	.	.	.	.	1ee	ma-	1g	ma-
!LO:TX:t=P:problem=kreska pseudotaktowa	!	!	!	!LO:TX:t=P:problem=kreska pseudotaktowa	!	!LO:TX:t=P:problem=kreska pseudotaktowa	!	!LO:TX:t=P:problem=kreska pseudotaktowa	!
1c	.	.	.	1c	ma-	1cc	-trem	1e	-tre(m)
=88-	=88-	=88-	=88-	=88-	=88-	=88-	=88-	=88-	=88-
1A	.	.	.	1A	-trem	1r	.	2f/	fi-
.	.	.	.	.	.	.	.	2e/	-li-
1B-X	.	.	.	2B-X\	fi-	1r	.	1d	-o-
.	.	.	.	2A\	-li-	.	.	.	.
1G	6	.	.	1G	-o-	2ee\	fi-	1g	-rum
.	5	.	.	.	.	2dd\	-li-	.	.
=89-	=89-	=89-	=89-	=89-	=89-	=89-	=89-	=89-	=89-
1A	.	0.r	0.r	2A\	-rum	1cc	-o-	2e/	fi-
.	.	.	.	2G\	lae-	.	.	2e/	-li-
1F	6	.	.	1F	-tan-	2dd\	-rum	1f	-o-
.	.	.	.	.	.	2cc\	lae-	.	.
1.G	.	.	.	1.G	-te(m)	1b	-tan-	1.d	-rum
=90-	=90-	=90-	=90-	=90-	=90-	=90-	=90-	=90-	=90-
.	.	1r	1r	.	.	2b\	-tem	.	.
2BB/	6	.	.	2BB/	lae-	2b\	lae-	2g/	lae-
1D	#	1r	1dd	1D	-tan-	1a	-tan-	1f#X	-ta(n)-
!LO:TX:b:Bi:t=viol.	!	!	!	!	!	!	!	!	!
1GG	.	1gg	1b	1GG	-tem	1g	-tem	1g	-tem
*custos:C	*	*custos:ee	*	*	*	*	*	*custos:ee	*
!LO:LB:g=original	!	!LO:LB:g=original	!	!	!	!	!	!LO:LB:g=original	!
=91-	=91-	=91-	=91-	=91-	=91-	=91-	=91-	=91-	=91-
1C	.	1ee	2cc\	00.r	.	00.r	.	0.r	.
.	.	.	2b/	.	.	.	.	.	.
1F	.	2ff\	1a	.	.	.	.	.	.
.	.	2ee\	.	.	.	.	.	.	.
!	!	!	!LO:TX:t=P:problem=kreska pseudotaktowa	!	!	!	!	!	!
1G	.	1dd	1b	.	.	.	.	.	.
=92-	=92-	=92-	=92-	=92-	=92-	=92-	=92-	=92-	=92-
1C	.	2ee\	1g	.	.	.	.	1r	.
.	.	2dd\	.	.	.	.	.	.	.
1AA	.	2cc\	1.a	.	.	.	.	1r	.
.	.	2cc\	.	.	.	.	.	.	.
!LO:TX:b:Bi:t=C. 1. B. C. 2.	!	!	!	!	!	!	!	!	!
!LO:TX:t=P:problem=kreska pseudotaktowa	!	!LO:TX:t=P:problem=kreska pseudotaktowa	!	!	!	!	!	!LO:TX:t=P:problem=kreska pseudotaktowa	!
1E	4	1b	.	.	.	.	.	1ee	ma-
!	!	!	!LO:TX:b:t=P:problem=# below	!	!	!	!	!	!
.	#	.	2g#X/	.	.	.	.	.	.
=93-	=93-	=93-	=93-	=93-	=93-	=93-	=93-	=93-	=93-
1A	#	1cc#X	1a	1A	ma-	1r	.	1cc#X	-trem
1F	6	1r	1r	1F	-tre(m)	1ff	ma-	2dd\	fi-
.	.	.	.	.	.	.	.	2ccny\	-li-
!	!	!	!	!	!	!LO:TX:t=P:problem=kreska pseudotaktowa	!	!	!
1G	.	1r	1r	2G\	fi-	1dd	-trem	1b	-o-
!	!	!	!	!LO:TX:t=P:problem=kreska pseudotaktowa	!	!	!	!	!
.	.	.	.	2F\	-li-	.	.	.	.
=94-	=94-	=94-	=94-	=94-	=94-	=94-	=94-	=94-	=94-
1E	6	00.r	00.r	1E	-o-	2ee\	fi-	2cc\	-rum
.	.	.	.	.	.	2dd\	-li-	2b\	lae-
1F	.	.	.	2F\	-ru(m)	1cc	-o-	1a	-tan-
.	.	.	.	2E\	lae-	.	.	.	.
1D	6	.	.	1D	-tan-	2dd\	-rum	2b\	-tem
.	5	.	.	.	.	2cc\	lae-	2a\	lae-
=95-	=95-	=95-	=95-	=95-	=95-	=95-	=95-	=95-	=95-
1.E	.	.	.	1.E	-te(m)	1b	-tan-	1g	-tan-
.	.	.	.	.	.	2b\	-tem	2g\	-tem
2C/	.	.	.	2C/	lae-	2ee\	lae-	2cc\	lae-
1G	.	.	.	1G	-tan-	1dd	-tan-	1b	-tan-
*	*	*	*	*custos:C	*	*custos:ee	*	*	*
!	!	!	!	!LO:LB:g=original	!	!LO:LB:g=original	!	!	!
=96-	=96-	=96-	=96-	=96-	=96-	=96-	=96-	=96-	=96-
2C/	.	00.r	00.r	2C/	-tem	2ee\	.	2cc\	.
*	*	*	*	*	*ij	*	*	*	*
2D/	6	.	.	2D/	lae-	4dd\	.	4b\	.
.	.	.	.	.	.	4cc\	.	4a\	.
1E	#	.	.	1E	-tan-	1b	.	1g#X	.
2AA/	.	.	.	2AA/	-tem	2cc\	.	2a\	.
!LO:TX:t=P:problem=kreska pseudotaktowa	!	!	!	!LO:TX:t=P:problem=kreska pseudotaktowa	!	!	!	!	!
2BB/	6	.	.	2BB/	lae-	2b\	.	2gny/	.
=97-	=97-	=97-	=97-	=97-	=97-	=97-	=97-	=97-	=97-
1D	#	.	.	1D	-tan-	1a	.	1f#X	.
1GG	.	.	.	1GG	-tem	1b	-tem	1g	-tem
1r	.	.	.	1r	.	1r	.	1r	.
*	*	*	*	*	*Xij	*	*	*custos:b	*
!	!	!	!LO:LB:g=original	!	!	!	!	!LO:LB:g=original	!
=98-	=98-	=98-	=98-	=98-	=98-	=98-	=98-	=98-	=98-
*M2/1	*	*M2/1	*M2/1	*M2/1	*	*M2/1	*	*M2/1	*
*met(C)	*	*met(C)	*met(C)	*met(C)	*	*met(C)	*	*met(C)	*
!LO:TX:b:B:t=tutti	!	!	!	!	!	!	!	!	!
!LO:TX:b:i:t=Gloria.	!	!	!	!	!	!	!	!	!
4r	.	4r	4r	4r	.	4r	.	4r	.
!	!	!	!LO:TX:b:i:t=Gloria	!	!	!	!	!	!
2E\	#	2bb\	2ee\	2E\	Glo-	2g#X/	Glo-	2b\	Glo-
4E\	.	8bb\L	8ee\L	8E\	-ri-	8g#/	-ri-	8b\	-ri-
.	.	8bb\J	8ee\J	8E\	-a	8g#/	-a	8b\	-a
2AA/	.	4aa\	4ee\	4AA/	pa-	4a\	pa-	4cc\	Pa-
.	.	8aa\L	8ee\L	8AA/	-tri	8a\	-tri	8cc\	-tri
.	.	8aa\J	8ee\J	8AA/	et	8a\	et	8cc\	et
2E\	4	4.bb\	4.ee\	4.E\	Fi-	4.a\	fi-	4.b\	Fi-
.	#	8bb\	8ee\	8E\	-li-	8g#X/	-li-	8b\	-li-
=99-	=99-	=99-	=99-	=99-	=99-	=99-	=99-	=99-	=99-
4AA/	.	4aa\	4ee\	4AA/	-o	4a\	-o	4cc\	-o
4FF/	.	4aa\	8ff\L	8FF/	et	8a\	et	8cc\	et
.	.	.	8ff\J	8FF/	ſpi-	8a\	ſpi-	8cc\	Spi-
4C/	.	4r	4gg\	4C/	-ri-	4e/	-ri-	8g\L	-ri-
.	.	.	.	.	.	.	.	8a\J	.
4BB/	6	8gg\L	8dd\L	8BB/	-tu-	8gny/	-tu-	2b\	-tu-
.	.	8aa\J	8dd\J	8BB/	-i	8g/	-i	.	.
!LO:TX:t=P:problem=kreska pseudotaktowa	!	!	!	!LO:TX:t=P:problem=kreska pseudotaktowa	!	!	!	!	!
1D	6 #	4bb\	1dd	1D	ſan-	4f#X/	ſan-	.	.
.	.	8b/L	.	.	.	2g/	.	(8b\	-i
.	.	8ccny/J	.	.	.	.	.	8a\)	.
!	!	!	!	!	!	!	!	!LO:TX:t=P:problem=kreska pseudotaktowa	!
.	.	4dd\	.	.	.	.	.	2a\	ſan-
!	!	!	!	!	!	!LO:TX:t=P:problem=kreska pseudotaktowa	!	!	!
.	6 4	4bb\	.	.	.	4f#/	.	.	.
=100-	=100-	=100-	=100-	=100-	=100-	=100-	=100-	=100-	=100-
!	!	!	!LO:TX:b:i:t=allegro.	!	!	!	!	!	!
2G\	5 #	2gg\	4dd\	2GG/	-cto	2g/	-cto	2b\	-cto
.	.	.	8dd\L	.	.	.	.	.	.
.	.	.	8dd\J	.	.	.	.	.	.
4E\	.	2r	8gg\L	2r	.	2r	.	2r	.
.	.	.	8gg\	.	.	.	.	.	.
4D/	5	.	8ff\	.	.	.	.	.	.
!	!	!	!LO:TX:t=P:problem=kreska pseudotaktowa	!	!	!	!	!	!
.	6	.	8dd\J	.	.	.	.	.	.
4.C/	.	4r	4ee\	0r	.	0r	.	0r	.
!	!	!LO:TX:b:i:t=allegro.	!	!	!	!	!	!	!
.	.	8gny/L	8r	.	.	.	.	.	.
8BB/	6	8g/J	8gg\	.	.	.	.	.	.
*	*	*custos:cc	*	*	*	*	*	*	*
!	!	!LO:LB:g=original	!	!	!	!	!	!	!
4AA/	6\	8cc/L	4ff#X\	.	.	.	.	.	.
.	.	8cc/	.	.	.	.	.	.	.
4GG/	.	8b/	4gg\	.	.	.	.	.	.
.	.	8g/J	.	.	.	.	.	.	.
*custos:D	*	*	*	*	*	*	*	*	*
!LO:LB:g=original	!	!	!	!	!	!	!	!	!
=101-	=101-	=101-	=101-	=101-	=101-	=101-	=101-	=101-	=101-
2D/	5 #	8a/L	4r	.	.	.	.	.	.
.	.	8a/J	.	.	.	.	.	.	.
.	6 x	4b/	8r	.	.	.	.	.	.
.	.	.	8f#X/	.	.	.	.	.	.
4E\	6	4cc\	4gny/	.	.	.	.	.	.
4F\	5	4cc\	4a/	.	.	.	.	.	.
*	*	*	*	*custos:G	*	*	*	*	*
!	!	!	!	!LO:LB:g=original	!	!	!	!	!
!LO:TX:b:Bi:t=B.	!	!	!	!	!	!	!	!	!
2G\	4	4.cc\	4.d/	4r	.	1r	.	2r	.
.	.	.	.	8G\	ſi-	.	.	.	.
.	6\	8b/	8d/	8G\	-cut	.	.	.	.
4c\	.	4cc\	4e/	8c\	e-	.	.	4r	.
.	.	.	.	8c\	-rat	.	.	.	.
!LO:TX:b:Bi:t=C 1.	!	!	!	!	!	!	!	!	!
4G\	.	4r	4r	8Bny\	in	.	.	8g/	ſi-
.	.	.	.	8G\	prin-	.	.	8g/	-cut
*	*	*	*	*	*	*custos:cc	*	*	*
!	!	!	!	!	!	!LO:LB:g=original	!	!	!
=102-	=102-	=102-	=102-	=102-	=102-	=102-	=102-	=102-	=102-
4A\	.	0r	0r	8.A\	-ci-	2r	.	8.cc\	e-
.	.	.	.	16A\	-pi-	.	.	16cc\	-rat
4G\	.	.	.	4G\	-o	.	.	8.b\	in
.	.	.	.	.	.	.	.	16g/	prin-
!LO:TX:b:Bi:t=C 2.	!	!	!	!	!	!	!	!	!
4F\	.	.	.	8r	.	8cc\	si-	8.a\	-ci-
.	.	.	.	8F\	et	8cc\	-cút	.	.
.	.	.	.	.	.	.	.	16a\	-pi-
4E\	.	.	.	8E\	nunc	8gg\	e-	4g/	-o
.	.	.	.	8E\	et	8gg\	-rat	.	.
*	*	*	*	*	*	*	*	*custos:b	*
!	!	!	!	!	!	!	!	!LO:LB:g=original	!
4D/	6	.	.	4D/	ſem-	8ff\	in	8r	.
.	.	.	.	.	.	8dd\	prin-	8b\	et
4C/	.	.	.	4C/	-per	8.ee\	-ci-	4cc\	nunc
.	.	.	.	.	.	16ee\	-pi-	.	.
!LO:TX:b:Bi:t=viol. viol.	!	!	!	!	!	!	!	!	!
4G\	.	.	.	8r	.	8dd\	-o	8r	.
*	*	*	*	*	*ij	*	*	*	*
.	.	.	.	8G\	et	8dd\	et	8b\	et
!LO:TX:t=P:problem=kreska pseudotaktowa	!	!	!	!	!	!	!	!	!
4C/	.	.	.	8E\	nunc	8cc\	nunc	8ee\	nunc
!	!	!	!	!LO:TX:t=P:problem=kreska pseudotaktowa	!	!LO:TX:t=P:problem=kreska pseudotaktowa	!	!LO:TX:t=P:problem=kreska pseudotaktowa	!
.	.	.	.	8C/	et	8cc\	et	8ee\	et
=103-	=103-	=103-	=103-	=103-	=103-	=103-	=103-	=103-	=103-
4G\	.	2r	8r	4G\	ſem-	4b\	ſem-	4dd\	ſem-
.	.	.	8dd\L	.	.	.	.	.	.
4C/	.	.	8ee\	4C/	-per	4cc\	-per	4cc\	-per
*	*	*	*	*	*Xij	*	*	*	*
.	.	.	8ee\J	.	.	.	.	.	.
4BB/	6	8r	8dd\L	2r	.	2r	.	2r	.
.	.	8gg\L	8b\J	.	.	.	.	.	.
4AA/	.	8aa\	4cc\	.	.	.	.	.	.
!	!	!LO:TX:t=P:problem=kreska pseudotaktowa	!	!	!	!	!	!	!
.	.	8aa\J	.	.	.	.	.	.	.
*	*	*	*custos:b	*	*	*	*	*	*
!	!	!	!LO:LB:g=original	!	!	!	!	!	!
4E\	.	8gg\L	8r	1r	.	1r	.	1r	.
.	.	8ee\J	8b\L	.	.	.	.	.	.
4D/	.	4ff\	8dd\	.	.	.	.	.	.
.	.	.	8a\J	.	.	.	.	.	.
4C/	.	8ee\L	8cc\L	.	.	.	.	.	.
.	.	8ee\	8cc\	.	.	.	.	.	.
4D/	.	8dd\	8b\	.	.	.	.	.	.
.	.	8cc\J	8a\J	.	.	.	.	.	.
=104-	=104-	=104-	=104-	=104-	=104-	=104-	=104-	=104-	=104-
!LO:TX:b:Bi:t=C B.	!	!	!	!	!	!	!	!	!
2E\	4	8b/L	4.a/	4r	.	2r	.	8b\	ſi-
.	.	8a/J	.	.	.	.	.	8b\	-cut
.	#	4b/	.	8E\	ſi-	.	.	8ee\	e-
!	!	!	!LO:TX:b:t=P:problem=# below	!	!	!	!	!	!
.	.	.	8g#X/	8E\	-cut	.	.	8ee\	-rat
4A\	.	4a/	4a/	8A\	e-	4r	.	8cc\	in
.	.	.	.	8A\	-rat	.	.	8a\	prin-
!LO:TX:b:Bi:t=C 2.	!	!	!	!	!	!	!	!	!
4E\	.	4r	4r	8G\	in	8e/	ſi-	8.b\	-ci-
.	.	.	.	8E\	prin-	8e/	-cút	.	.
.	.	.	.	.	.	.	.	16ee\	-pi-
4F\	5	0r	0r	8.F\	-ci-	8a\	e-	8cc\	-o
.	.	.	.	.	.	8a\	-rat	8dd\	et
.	.	.	.	16F\	-pi-	.	.	.	.
4E\	-	.	.	4E\	-o	8g/	in	4ee\	nunc
.	.	.	.	.	.	8e/	prin-	.	.
*	*	*	*	*custos:E	*	*	*	*	*
!	!	!	!	!LO:LB:g=original	!	!	!	!	!
4D/	.	.	.	8r	.	8.fny/	-ci-	8r	.
*	*	*	*	*	*	*	*	*	*ij
.	.	.	.	8E\	et	.	.	8a\	et
.	.	.	.	.	.	16f/	-pi-	.	.
4C/	.	.	.	8C/	nunc	4e/	-o	8cc\	nunc
.	.	.	.	8C/	et	.	.	8ee\	et
=105-	=105-	=105-	=105-	=105-	=105-	=105-	=105-	=105-	=105-
4BB/	6\	.	.	4BB/	ſem-	8r	.	8dd\	nunc
*	*	*	*	*	*	*	*	*	*Xij
.	.	.	.	.	.	8g/	et	8dd\	et
!	!	!	!	!	!	!LO:TX:b:i:t=Verte	!	!	!
4AA/	.	.	.	4AA/	-per	4a\	núnc	4cc\	ſem-
*	*	*	*	*	*	*custos:b	*	*custos:b	*
!	!	!	!	!	!	!LO:PB:g=original	!	!LO:PB:g=original	!
!LO:TX:t=P:problem=kreska pseudotaktowa	!	!	!	!	!	!	!	!	!
2GG/	.	.	.	8r	.	8r	.	8b\	-per
*	*	*	*	*	*ij	*	*	*	*
.	.	.	.	8GG/	et	8b\	et	8g/	et
.	.	.	.	8BB/	nunc	8b\	núnc	8g/	nunc
!	!	!	!	!LO:TX:t=P:problem=kreska pseudotaktowa	!	!LO:TX:t=P:problem=kreska pseudotaktowa	!	!LO:TX:t=P:problem=kreska pseudotaktowa	!
.	.	.	.	8GG/	et	8b\	et	8g/	et
4D/	#	4r	8a/L	4D/	ſem-	4a\	ſem-	4f#X/	ſem-
.	.	.	8a/J	.	.	.	.	.	.
!LO:TX:b:Bi:t=viol.	!	!	!	!	!	!	!	!	!
4GG/	.	8dd\L	4b/	4GG/	-per	4g/	-per	4g/	-per
*	*	*	*	*	*Xij	*	*	*	*
.	.	8dd\J	.	.	.	.	.	.	.
4C/	.	4ee\	8gny/L	2r	.	2r	.	2r	.
.	.	.	8g/J	.	.	.	.	.	.
!	!	!	!LO:TX:t=P:problem=kreska pseudotaktowa	!	!	!	!	!	!
4F\	.	8cc\L	4a/	.	.	.	.	.	.
!	!	!LO:TX:t=P:problem=kreska pseudotaktowa	!	!	!	!	!	!	!
.	.	8cc\J	.	.	.	.	.	.	.
=106-	=106-	=106-	=106-	=106-	=106-	=106-	=106-	=106-	=106-
4D/	6	8dd\L	8ffny\L	0r	.	2r	.	2r	.
.	.	8cc\	8ee\	.	.	.	.	.	.
4D/	5	8b\	8dd\	.	.	.	.	.	.
.	.	8a\J	8cc\J	.	.	.	.	.	.
!LO:TX:b:Bi:t=C. C.	!	!	!	!	!	!	!	!	!
2E\	4	4.g#X/	4.b/	.	.	4r	.	4r	.
.	#	.	.	.	.	8g#X/	et	8b\	et
.	.	8g#/	8b/	.	.	8g#/	in	8b\	in
4.AA/	.	4e/	4a/	.	.	4a\	ſe-	4cc\	ſe-
.	.	4r	4r	.	.	8a\	-cú-	8cc\	-cu-
8D/	-	.	.	.	.	8f/	-la	8a\	-la
2GG/	5	2r	2r	.	.	8gny/	ſe-	4.b\	ſe-
.	.	.	.	.	.	8d/	-cu-	.	.
!	!	!	!	!	!	!LO:TX:t=P:problem=kreska pseudotaktowa, między nutą a kropką	!	!	!
.	6	.	.	.	.	4.e/	-lo-	.	.
.	.	.	.	.	.	.	.	8b\	-cu-
*custos:AA	*	*custos:dd	*	*	*	*	*	*	*
!LO:LB:g=original	!	!LO:LB:g=original	!	!	!	!	!	!	!
=107-	=107-	=107-	=107-	=107-	=107-	=107-	=107-	=107-	=107-
2AA/	5	1r	1r	2r	.	.	.	8.cc\	-lo-
.	.	.	.	.	.	8e/	-rúm	.	.
.	.	.	.	.	.	.	.	16cc\	-rum
.	6	.	.	.	.	8a\	ſe-	8.cc\	ſe-
.	.	.	.	.	.	8a\	-cú-	.	.
.	.	.	.	.	.	.	.	16a\	-cu-
4BB/	6	.	.	4r	.	8g/	-lo-	8b\	-lo-
.	.	.	.	.	.	8g/	-rúm	8b\	-ru(m)
!LO:TX:b:Bi:t=B. viol.	!	!	!	!	!	!LO:TX:t=P:problem=kreska pseudotaktowa	!	!LO:TX:t=P:problem=kreska pseudotaktowa	!
4D/	#	.	.	8D/	et	4f#X/	a-	4a\	a-
.	.	.	.	8D/	in	.	.	.	.
4.G\	.	8dd\L	4r	4G\	ſae-	2g/	-men	4b\	-men
.	.	8dd\J	.	.	.	.	.	.	.
.	.	4ee\	8gg\L	8G\	-cu-	.	.	4r	.
8E\	6	.	8gg\J	8E\	-la	.	.	.	.
4.F\	5	8cc\L	4aa\	4.F\	ſae-	2r	.	2r	.
.	.	8cc\J	.	.	.	.	.	.	.
!	!	!LO:TX:t=P:problem=kreska pseudotaktowa	!	!	!	!	!	!	!
.	6	4dd\	8ff\L	.	.	.	.	.	.
!LO:TX:t=P:problem=kreska pseudotaktowa	!	!	!LO:TX:t=P:problem=kreska pseudotaktowa	!LO:TX:t=P:problem=kreska pseudotaktowa	!	!	!	!	!
8D/	.	.	8ff\J	8D/	-cu-	.	.	.	.
=108-	=108-	=108-	=108-	=108-	=108-	=108-	=108-	=108-	=108-
4E\	.	4b/	4gg\	4.E\	-lo-	1r	.	1r	.
4C/	.	4cc\	4gg\	.	.	.	.	.	.
.	.	.	.	8C/	-ru(m)	.	.	.	.
8F\L	3	8cc\L	8.aa\L	8F\	ſae-	.	.	.	.
8E\	6 3	8cc\	.	8E\	-cu-	.	.	.	.
.	.	.	16gg\K	.	.	.	.	.	.
8F\	3	8cc\	8.aa\	8F\	-lo-	.	.	.	.
!	!	!	!	!LO:TX:t=P:problem=kreska pseudotaktowa	!	!	!	!	!
8A\J	6 3	8cc\J	.	8A\	-rum	.	.	.	.
.	.	.	16dd\Jk	.	.	.	.	.	.
4G\	.	4b/	4dd\	4G\	a-	8dd\	et	8.b\	et
.	.	.	.	.	.	8dd\	in	.	.
.	.	.	.	.	.	.	.	16b\	in
2C/	.	4cc\	4cc\	4C/	-men	4ee\	ſae-	4cc\	ſe-
*	*	*	*	*	*	*	*	*custos:cc	*
!	!	!	!	!	!	!	!	!LO:LB:g=original	!
.	.	2r	2r	2r	.	8ee\	-cu-	8cc\	-cu-
.	.	.	.	.	.	8cc\	-la	8a\	-la
2G\	5	.	.	.	.	8dd\	se-	4.b\	ſe-
.	.	.	.	.	.	8dd	-cú-	.	.
*	*	*	*clefC1	*	*	*	*	*	*
*	*	*	*custos:a	*	*	*	*	*	*
!	!	!	!LO:LB:g=original	!	!	!LO:LB:g=original	!	!	!
=109-	=109-	=109-	=109-	=109-	=109-	=109-	=109-	=109-	=109-
!	!	!LO:TX:t=P:problem=kreska pseudotaktowa	!	!	!	!	!	!	!
.	6	1r	1r	1r	.	4.ee\	-lo-	.	.
.	.	.	.	.	.	.	.	8g/	-cu-
4A\	5	.	.	.	.	.	.	4cc\	-lo-
.	.	.	.	.	.	8ee\	.	.	.
4F\	6 5	.	.	.	.	8ff\	-rum	4a\	-rum
.	.	.	.	.	.	8ff\	Se-	.	.
4G\	6	.	.	.	.	8ee\	-cu-	8g/	ſe-
.	5	.	.	.	.	8dd\	-lo-	8g/	-cu-
*	*	*clefC1	*	*	*	*	*	*	*
!LO:TX:b:Bi:t=B.	!	!	!	!	!	!	!	!	!
2A\	6 4	8a\L	4r	4r	.	4dd\	-rum	8fny/	-lo-
.	.	8a\J	.	.	.	.	.	8f/	-ru(m)
.	5 #	4ee\	8a\L	8AA/	et	4cc#X\	a-	4e/	a-
.	.	.	8a\J	8AA/	in	.	.	.	.
2D/	.	8ff\L	4a\	4D/	ſae-	2dd\	-men	2d/	-me(n)
.	.	8dd\J	.	.	.	.	.	.	.
.	.	4ff\	8a\L	8D/	-cu-	.	.	.	.
!	!	!	!	!LO:TX:t=P:problem=kreska pseudotaktowa	!	!	!	!	!
.	.	.	8b\J	8D/	-la	.	.	.	.
*	*	*	*	*custos:C	*	*	*	*	*
!	!	!	!	!LO:LB:g=original	!	!	!	!	!
=110-	=110-	=110-	=110-	=110-	=110-	=110-	=110-	=110-	=110-
2C/	6	4.ee\	4cc\	4.C/	ſae-	2r	.	4r	.
.	.	.	4a\	.	.	.	.	8a\	et
.	.	8a\	.	8C/	-cu-	.	.	8a\	in
!LO:TX:t=P:problem=kreska pseudotaktowa	!	!	!LO:TX:t=P:problem=kreska pseudotaktowa	!	!	!	!	!	!
2BB/	7	4a\	2b\	8BB/	-lo-	4r	.	4dd\	ſe-
.	.	.	.	8BB/	-rum	.	.	.	.
!	!	!LO:TX:t=P:problem=kreska pseudotaktowa	!	!LO:TX:t=P:problem=kreska pseudotaktowa	!	!	!	!	!
.	6\	4g#X/	.	4BB/	a-	8d/	et	8dd\	-cu-
!	!	!	!	!	!	!LO:TX:t=P:problem=kreska pseudotaktowa	!	!LO:TX:t=P:problem=kreska pseudotaktowa	!
.	.	.	.	.	.	8d/	in	8b\	-la
2AA/	.	2a\	2e/	2AA/	-men	4a\	ſe-	4.cc\	ſe-
.	.	.	.	.	.	8a\	-cu-	.	.
.	.	.	.	.	.	8e/	-la	8cc\	-cu-
4E\	.	2r	2r	2r	.	8g/	ſe-	8b\	-lo-
.	.	.	.	.	.	8g/	-cú-	8b\	-rum
4C/	7	.	.	.	.	8g/	-lo-	4b\	a-
.	.	.	.	.	.	8g/	-rum	.	.
=111-	=111-	=111-	=111-	=111-	=111-	=111-	=111-	=111-	=111-
2D/	4	8a\L	2r	4r	.	4g/	a-	4a\	-men
.	.	8a\J	.	.	.	.	.	.	.
.	#	4dd\	.	8D/	et	4f#X/	.	8a\	et
.	.	.	.	8D/	in	.	.	8a\	ſe-
4.G\	.	8dd\L	8d/L	4G\	ſae-	2g/	-men	4b\	-cu-
.	.	8b\J	8d/J	.	.	.	.	.	.
.	.	2ee\	4g/	8G\	-cu-	.	.	8b\	-la
!	!	!	!	!	!	!	!	!LO:TX:t=P:problem=nieczytelny tekst	!
8E\	.	.	.	8E\	-la	.	.	8g/	.
*	*	*	*	*	*	*	*	*custos:a	*
!	!	!	!	!	!	!	!	!LO:LB:g=original	!
2F\	7	.	8fny/L	4.F\	ſae-	4r	.	4.a\	ſe-
.	.	.	8g/	.	.	.	.	.	.
.	6	4dd\	8a/	.	.	8dd\	et	.	.
.	.	.	8a/J	8F\	-cu-	8dd\	in	8dd\	-cu-
2E\	7	2ee\	2g/	8E\	-lo-	4gg\	ſe-	8dd\	-lo-
.	.	.	.	8E\	-rum	.	.	8dd\	-rum
.	6\	.	.	4E\	a-	8gg\	-cú-	4cc#X\	a-
.	.	.	.	.	.	8ee\	-la	.	.
=112-	=112-	=112-	=112-	=112-	=112-	=112-	=112-	=112-	=112-
2D/	.	2a\	2f/	4D/	-me(n)	4.ff\	ſe-	4dd\	-men
.	.	.	.	8D/	ſae-	.	.	8dd\	ſe-
.	.	.	.	8D/	-cu-	8ff\	-[cu]-	8dd\	-cu-
!LO:LB:g=original	!	!	!	!	!	!LO:LB:g=original	!	!	!
4E\	6	2r	2r	8E\	-lo-	8ee\	-lo-	8ccny\	-lo-
.	.	.	.	8E\	-ru(m)	8ee\	-rúm	8cc\	-rum
4G\	.	.	.	4G\	a-	4dd\	a-	4b\	a-
2C/	.	4r	1r	4C/	-me(n)	4ccny\	-men	4cc\	-men
.	.	2gny/	.	4C/	a-	8cc\	et	8ee\	et
.	.	.	.	.	.	8cc\	in	8ee\	in
!LO:TX:t=P:problem=kreska pseudotaktowa	!	!	!	!	!	!	!	!	!
2G\	.	.	.	2G\	.	4b\	ſe-	4dd\	ſe-
!	!	!LO:TX:t=P:problem=kreska pseudotaktowa	!	!	!	!	!	!	!
.	.	4g/	.	.	.	8g/	-cu-	8b\	-cu-
!	!	!	!	!	!	!LO:TX:t=P:problem=kreska pseudotaktowa	!	!LO:TX:t=P:problem=kreska pseudotaktowa	!
.	.	.	.	.	.	8b\	-la	8dd\	-la
=113-	=113-	=113-	=113-	=113-	=113-	=113-	=113-	=113-	=113-
2A\	.	2e/	4r	2A\	.	8b\	ſe-	8cc\	ſe-
.	.	.	.	.	.	8a\	-cú-	8cc\	-cu-
.	.	.	2ee\	.	.	[4a\	-lo-	4.cc\	-lo-
!	!	!	!	!LO:TX:t=P:problem=kreska pseudotaktowa	!	!	!	!	!
2E\	6 4	2e/	.	2E\	.	8a\]	.	.	.
.	.	.	.	.	.	8a\	-rúm	8cc\	-rum
!	!	!	!LO:TX:t=P:problem=kreska pseudotaktowa	!	!	!	!	!	!
.	5 3	.	4ee\	.	.	(>2g/	a-	4b\	a-
2F\	9	4r	1cc	2F\	.	.	.	4a\	-men
.	8	4a\	.	.	.	2fny/)	.	8a\	et
.	.	.	.	.	.	.	.	8a\	in
!	!	!LO:LB:g=original	!	!	!	!	!	!	!
[2C/	5 4	4cc\	.	1C/	.	.	.	4g/	ſe-
.	x 3	2g/	.	.	.	4e/	-men	8g/	-cu-
.	.	.	.	.	.	.	.	8g/	-la
!	!	!	!	!	!	!	!	!LO:LB:g=original	!
=114-	=114-	=114-	=114-	=114-	=114-	=114-	=114-	=114-	=114-
2C/]	.	.	2ee\	.	.	8cc\	ſe-	8e/	ſe-
.	.	.	.	.	.	8cc\	-cu-	8e/	-cu-
.	.	4e/	.	.	.	8cc\	-lo-	8g/	-lo-
.	.	.	.	.	.	8b\	-rum	8g/	-rum
2D/	4	4r	2dd\	2D/	.	2a\	a-	(>4.g/	a-
.	.	4a\	.	.	.	.	.	.	.
.	#	.	.	.	.	.	.	8f#X/)	.
4GG/	.	4g/	4dd\	4GG/	.	4b\	-men	4g/	-men
2C/	.	2e/	2cc\	2C/	.	2ee\	A-	2g/	a-
4BB/	6	4g/	4dd\	4BB/	-men	4dd\	-men	4g/	-men
=115-	=115-	=115-	=115-	=115-	=115-	=115-	=115-	=115-	=115-
!	!	!	!	!	!	!LO:TX:t=P:problem=kreska pseudotaktowa, między nuta a kropką	!	!	!
1C	.	1.g	2cc\	1C	a-	1.ee	A-	4.g/	a-
.	.	.	.	.	.	.	.	16a\LL	.
.	.	.	.	.	.	.	.	16b\JJ	.
!	!	!	!	!	!	!	!	!LO:TX:t=P:problem=kreska pseudotaktowa	!
.	.	.	2g/	.	.	.	.	2cc\	.
[1GGl;;	.	.	[1gl;;	[1GGl;;	-men-	.	.	4b\	.
.	.	.	.	.	.	.	.	4a\	.
.	.	2d/	.	.	.	4dd\	.	[2bl;;\	-men.
.	.	.	.	.	.	4cc\	.	.	.
=116-	=116-	=116-	=116-	=116-	=116-	=116-	=116-	=116-	=116-
0GG]	.	0dl;;	0g]	0GG]	.	0ddl;;	-men.	0b]	.
==	==	==	==	==	==	==	==	==	==
*-	*-	*-	*-	*-	*-	*-	*-	*-	*-
!!!system-decoration: [vox][(str)]<klav>
!!!RDF**kern: > = above
!!!RDF**kern: < = below
!!!RDF**kern: l = terminal long
!!!ENC: Anastazja Marusiak
!!!END: 2022-11-15
!!!ENC: Andrzej Kubiczek
!!!END: 2022-12-04
